X:1
T:Walking in the Way with Jesus
T:Walking in the Way with Jesus
T:James Milton Black
T:Lida Myra Keck, 1898
T:Public Domain Courtesy of the Cyber Hymnal™
C:James Milton Black
Z:Public Domain
Z:Courtesy of the Cyber Hymnal™
%%score ( 1 2 ) ( 3 4 )
L:1/8
Q:1/4=100
M:4/4
K:D
V:1 treble 
V:2 treble 
V:3 bass 
V:4 bass 
V:1
 D2 | [DF]>[DF] [DF]>[DE] D2 [DF]2 | [FA]4 [DF]2 [DA]2 | [DF]>[DF] [DF]>[DE] D2 [DF]2 | %4
w: 1.~While|walk- ing in the way with|Je- sus, Se-|cure from ev- ery storm that|
w: 2.~While|walk- ing in the way with|Je- sus, I|bid fare- well to all my|
w: 3.~While|walk- ing in the way with|Je- sus, I|hear His “Come to Me and|
w: 4.~While|walk- ing in the way with|Je- sus, I|see my heav’n- ly home a-|
 [CE]6 [CG]2 | [DF]>[DF] [DF]>[DE] D2 [DF]2 | [FA]2 [DF]2 [DG]2 [DB]2 | %7
w: blows, I’m|kept in per- fect peace from|all my foes, While|
w: fears; A|bow of pro- mise glows a-|bove my tears, While|
w: rest”; And,|look- ing un- to Him, my|soul is blest, While|
w: far; I|see the pear- ly gates for|me a- jar, While|
 [Dd]>[Dc] [Dd]>[GB] [FA]2 [DF]2 | [CE]4 D2 z2 ||"^Refrain" [Fd]>[Ec] [Fd]>[GB] [FA]2 [GB]2 | %10
w: walk- ing in the way with|Je- sus.||
w: walk- ing in the way with|Je- sus.||
w: walk- ing in the way with|Je- sus.||
w: walk- ing in the way with|Je- sus.||
 [FA]4 ([DF]2 [FA]2) | [Fd]>[Ec] [Fd]>[GB] [FA]2 [DF]2 | [DF]4 [CE]2 [CG]2 | %13
w: |||
w: |||
w: |||
w: |||
 [DF]>[DF] [DF]>[DE] D2 [DF]2 | [FA]2 [DF]2 [DG]2 [DB]2 | [Dd]>[Dc] [Dd]>[GB] [FA]2 [DF]2 | %16
w: |||
w: |||
w: |||
w: |||
 [CE]4 D2 |] %17
w: |
w: |
w: |
w: |
V:2
 D2 | x4 D2 x2 | x8 | x4 D2 x2 | x8 | x4 D2 x2 | x8 | x8 | x4 D2 x2 || x8 | x8 | x8 | x8 | %13
 x4 D2 x2 | x8 | x8 | x4 D2 |] %17
V:3
 [D,F,]2 | [D,A,]>[D,A,] [D,A,]>[D,G,] [D,F,]2 [D,A,]2 | [D,D]4 [D,A,]2 [D,F,]2 | %3
w: |||
 [D,A,]>[D,A,] [D,A,]>[D,G,] [D,F,]2 [D,A,]2 | [A,,A,]6 [A,,A,]2 | %5
w: ||
 [D,A,]>[D,A,] [D,A,]>[D,G,] [D,F,]2 [D,A,]2 | [D,D]2 [D,A,]2 [G,B,]2 G,2 | %7
w: |* * * Walk-|
 [F,A,]>[F,A,] [G,B,]>[G,D] [A,D]2 A,2 | [A,,G,]4 [D,F,]2 z2 || %9
w: * * * * * ing||
 [D,A,]>[D,A,] [D,A,]>[D,D] [D,D]2 [D,D]2 | [D,D]4 [D,A,]4 | %11
w: in the way with Je- sus,|Walk- ing|
 [D,A,]>[D,A,] [D,A,]>[D,D] [D,D]2 [D,A,]2 | [A,,A,]4 [A,,A,]2 [A,,A,]2 | %13
w: in the way with Je- sus,|I’m kept in|
 [D,A,]>[D,A,] [D,A,]>[D,G,] [D,F,]2 [D,A,]2 | [D,D]2 [D,A,]2 [G,B,]2 G,2 | %15
w: per- fect peace, my joys in-|crease, While walk- ing|
 [F,A,]>[F,A,] [G,B,]>[G,D] [A,D]2 A,2 | [A,,G,]4 [D,F,]2 |] %17
w: in the way with Je- sus.||
V:4
 x2 | x8 | x8 | x8 | x8 | x8 | x6 G,2 | x6 A,2 | x8 || x8 | x8 | x8 | x8 | x8 | x6 G,2 | x6 A,2 | %16
 x6 |] %17

